data/pieces/simple/blackRook.svg

<svg xmlns="http://www.w3.org/2000/svg" width="1000pt" height="1000pt" viewBox="0 0 1000 1000"><path d="M188 910V741l120-109V396l-120-80V115h180v80h41v-80h182v80h41v-80h180v201l-120 80v236l120 109v169H188" style="stroke-width:2;stroke-linecap:butt;stroke-linejoin:miter;stroke:#fff;stroke-opacity:1;stroke-miterlimit:10;fill-rule:nonzero;fill:#fff;fill-opacity:1"/><path d="M188 910V741l120-109V396l-120-80V115h180v80h41v-80h182v80h41v-80h180v201l-120 80v236l120 109v169zm160-252h304v-40H348zm0-242h304v-40H348V41" style="stroke:none;fill-rule:nonzero;fill:#000;fill-opacity:1"/></svg>

<?xml version="1.0" encoding="UTF-8"?>
<!--
    Image is based on original work of Max Froumentin (mf@w3.org) which
    used to be available at:

    http://people.w3.org/maxf/ChessGML/ChessSophia.svg

    These images are under the W3C Software Notice and License, see
    COPYING.html for details.
-->
<svg xmlns="http://www.w3.org/2000/svg" xmlns:xlink="http://www.w3.org/1999/xlink" width="1000pt" height="1000pt" viewBox="0 0 1000 1000" version="1.1">
<g id="surface0">
<path style="stroke-width:2;stroke-linecap:butt;stroke-linejoin:miter;stroke:white;stroke-opacity:1;stroke-miterlimit:10;fill-rule:nonzero;fill:white;fill-opacity:1;" d="M 188 910 L 188 741 L 308 632 L 308 396 L 188 316 L 188 115 L 368 115 L 368 195 L 409 195 L 409 115 L 591 115 L 591 195 L 632 195 L 632 115 L 812 115 L 812 316 L 692 396 L 692 632 L 812 741 L 812 910 L 188 910"/>
<path style="stroke:none;fill-rule:nonzero;fill:black;fill-opacity:1;" d="M 188 910 L 188 741 L 308 632 L 308 396 L 188 316 L 188 115 L 368 115 L 368 195 L 409 195 L 409 115 L 591 115 L 591 195 L 632 195 L 632 115 L 812 115 L 812 316 L 692 396 L 692 632 L 812 741 L 812 910 L 188 910 M 348 658 L 652 658 L 652 618 L 348 618 L 348 658 M 348 416 L 652 416 L 652 376 L 348 376 L 348 41"/>
</g>
</svg>
